icons/text-block.svg

<?xml version="1.0" encoding="utf-8"?>
<!-- Generator: Adobe Illustrator 16.0.0, SVG Export Plug-In . SVG Version: 6.00 Build 0)  -->
<!DOCTYPE svg PUBLIC "-//W3C//DTD SVG 1.1//EN" "http://www.w3.org/Graphics/SVG/1.1/DTD/svg11.dtd">
<svg version="1.1" id="Layer_1" xmlns="http://www.w3.org/2000/svg" xmlns:xlink="http://www.w3.org/1999/xlink" x="0px" y="0px"
	 width="1792px" height="1792px" viewBox="0 0 1792 1792" enable-background="new 0 0 1792 1792" xml:space="preserve">
<path fill="#333333" d="M1792,1344v128c0,17.333-6.333,32.333-19,45s-27.667,19-45,19H64c-17.333,0-32.333-6.333-45-19
	s-19-27.667-19-45v-128c0-17.333,6.333-32.333,19-45s27.667-19,45-19h1664c17.333,0,32.333,6.333,45,19S1792,1326.667,1792,1344z
	 M1792,960v128c0,17.333-6.333,32.333-19,45s-27.667,19-45,19H64c-17.333,0-32.333-6.333-45-19s-19-27.667-19-45V960
	c0-17.333,6.333-32.333,19-45s27.667-19,45-19h1664c17.333,0,32.333,6.333,45,19S1792,942.667,1792,960z M1792,576v128
	c0,17.333-6.333,32.333-19,45s-27.667,19-45,19H64c-17.333,0-32.333-6.333-45-19S0,721.333,0,704V576c0-17.333,6.333-32.333,19-45
	s27.667-19,45-19h1664c17.333,0,32.333,6.333,45,19S1792,558.667,1792,576z M1792,192v128c0,17.333-6.333,32.333-19,45
	s-27.667,19-45,19H64c-17.333,0-32.333-6.333-45-19S0,337.333,0,320V192c0-17.333,6.333-32.333,19-45s27.667-19,45-19h1664
	c17.333,0,32.333,6.333,45,19S1792,174.667,1792,192z"/>
</svg>

<?xml version="1.0" encoding="utf-8"?>
<svg width="1792" height="1792" viewBox="0 0 1792 1792" xmlns="http://www.w3.org/2000/svg"><path d="M1792 1344v128q0 26-19 45t-45 19h-1664q-26 0-45-19t-19-45v-128q0-26 19-45t45-19h1664q26 0 45 19t19 45zm0-384v128q0 26-19 45t-45 19h-1664q-26 0-45-19t-19-45v-128q0-26 19-45t45-19h1664q26 0 45 19t19 45zm0-384v128q0 26-19 45t-45 19h-1664q-26 0-45-19t-19-45v-128q0-26 19-45t45-19h1664q26 0 45 19t19 45zm0-384v128q0 26-19 45t-45 19h-1664q-26 0-45-19t-19-45v-128q0-26 19-45t45-19h1664q26 0 45 19t19 45z"/></svg>
